X:135
T: DER SOMMER GEHT UMMI
N: E0724
O: Europa, Mitteleuropa, Deutschland, Bayern, Braunau, Alt - Oettingen
R: Liebes - Lied, Leid, Klage
M: 3/4
L: 1/8
K: G
dc | B2A2B2 | c2cBA2 |
c2B2c2 | d2dcB
c | d2^c2d2 | e2eAA
B | c2cFF2 | G2z2

